!!!COM:	Japart, Jean
!!!CDT:	~1450//-~1507//
!!!OTL:	Vray dieu d'amours / Sancte Iohanes baptista / Ora pro nobis
!!!AGN:	Song; Chanson
!!!SCT:	Jap3022
!!!SCA:	Jap3022
!!!voices:	5
**kern	**kern	**kern	**kern	**kern
*staff5	*staff4	*staff3	*staff2	*staff1
*Ivox	*Ivox	*Ivox	*Ivox	*Ivox
*I"Bassus	*I"Tenor	*I"Contra	*I"Contra	*I"Superius
*I'B	*I'T	*I'C	*I'C	*I'S
*clefF4	*clefGv2	*clefGv2	*clefGv2	*clefG2
*k[b-]	*k[b-]	*k[]	*k[]	*k[b-]
*M2/1	*M2/1	*M2/1	*M2/1	*M2/1
*met(C|)	*met(C|)	*met(C|)	*met(C|)	*met(C|)
=1-	=1-	=1-	=1-	=1-
!	!	!	!LO:TX:X=-40:Z=8:t=Sancte Iohanes baptista	!
!	!	!LO:TX:X=-40:Z=8:t=Ora pro nobis	!	!
[0F	0f	0r	1c	0r
.	.	.	1c	.
=2	=2	=2	=2	=2
0F_	1f	0r	1c	0a
.	1f	.	1c	.
=3	=3	=3	=3	=3
0F]	0f	0r	1c	1a
.	.	.	1c	1a
=4	=4	=4	=4	=4
0D	1r	0r	0d	0a
.	1f	.	.	.
=5	=5	=5	=5	=5
0F	1f	0r	0c	1r
.	1f	.	.	1a
=6	=6	=6	=6	=6
1G	1d	1r	0r	1b-
1A	2c	1c	.	1a
.	[2f	.	.	.
=7	=7	=7	=7	=7
1F	2f]	1A	0r	1a
.	4e	.	.	.
.	4d	.	.	.
1G	1e	1B	.	1g
=8	=8	=8	=8	=8
1.F	1f	1c	0r	1.a
.	1F	1c	.	.
4E	.	.	.	4g
4D	.	.	.	4f
=9	=9	=9	=9	=9
1C	0G	0r	1c	1e
1E-i	.	.	1c	[1g
=10	=10	=10	=10	=10
1D	1A	0r	0d	2g]
.	.	.	.	2f
1BB-	1B-	.	.	[1f
=11	=11	=11	=11	=11
0C	0G	0r	0c	1f]
.	.	.	.	1e
=12	=12	=12	=12	=12
1r	1F	1c	0r	0f
1F	1f	1A	.	.
=13	=13	=13	=13	=13
1G	2d	1B	0r	1r
.	2e	.	.	.
[1F	[1f	1c	.	1a
=14	=14	=14	=14	=14
2F]	1f]	0c	0r	1a
2G	.	.	.	.
2A	[1F	.	.	1a
2B-	.	.	.	.
=15	=15	=15	=15	=15
1c	1F]	0r	0r	1a
1F	1f	.	.	1a
=16	=16	=16	=16	=16
1.c	1e	0r	0r	0g
.	[1g	.	.	.
2B-	.	.	.	.
=17	=17	=17	=17	=17
2A	1g]	0r	1c	1a
2G	.	.	.	.
1A	1f	.	1c	[1cc
=18	=18	=18	=18	=18
0G	1.g	0r	0d	2cc]
.	.	.	.	2a
.	.	.	.	1bni
.	2f	.	.	.
=19	=19	=19	=19	=19
0A	2e	0r	0c	0cc
.	2d	.	.	.
.	1e	.	.	.
=20	=20	=20	=20	=20
1.F	1f	1c	0r	0a
.	1c	1A	.	.
2E	.	.	.	.
=21	=21	=21	=21	=21
1D	1d	1B	0r	0r
1C	1e	1c	.	.
=22	=22	=22	=22	=22
0F	0f	0c	0r	0a
=23	=23	=23	=23	=23
1r	0F	0r	1c	1a
[1F	.	.	1c	1a
=24	=24	=24	=24	=24
1F]	1r	0r	1c	0a
1D	1f	.	1d	.
=25	=25	=25	=25	=25
1E	1g	0r	0c	1r
1F	1f	.	.	1a
=26	=26	=26	=26	=26
1G	1d	1r	0r	1b-
2C	2e	1c	.	1a
[2F	2c	.	.	.
=27	=27	=27	=27	=27
1F]	2d	1A	0r	1a
.	1f	.	.	.
1G	.	1B	.	1g
.	2e	.	.	.
=28	=28	=28	=28	=28
1.F	2.f	1c	0r	1.a
.	4e	.	.	.
.	[1c	1c	.	.
4E	.	.	.	4g
4D	.	.	.	4f
=29	=29	=29	=29	=29
0C	2c]	0r	1c	1e
.	4B-	.	.	.
.	4A	.	.	.
.	2G	.	1c	[1g
.	2A	.	.	.
=30	=30	=30	=30	=30
0r	1.B-	0r	0d	2g]
.	.	.	.	2f
.	.	.	.	[1f
.	2A	.	.	.
=31	=31	=31	=31	=31
0C	2G	0r	0c	1f]
.	2F	.	.	.
.	1G	.	.	1e
=32	=32	=32	=32	=32
0F	1F	1c	0r	0f
.	2c	1A	.	.
.	2d	.	.	.
=33	=33	=33	=33	=33
1G	1e	1B	0r	1r
[1F	[1f	1c	.	1a
=34	=34	=34	=34	=34
0F_	1f]	0c	0r	1a
.	1f	.	.	1a
=35	=35	=35	=35	=35
1F]	0f	0r	1r	1a
1F	.	.	1c	1a
=36	=36	=36	=36	=36
0C	0e	0r	1c	0g
.	.	.	1c	.
=37	=37	=37	=37	=37
1F	0f	0r	0c	1a
1A	.	.	.	[1cc
=38	=38	=38	=38	=38
0G	0g	0r	0d	1cc]
.	.	.	.	1bni
=39	=39	=39	=39	=39
0C	0e	0r	0c	0cc
=40	=40	=40	=40	=40
0F	1.f	1c	0r	0a
.	.	1A	.	.
.	2e	.	.	.
=41	=41	=41	=41	=41
1G	1d	1B	0r	0r
1C	1c	1c	.	.
=42	=42	=42	=42	=42
1r	0F	0c	0r	1.f
[1F	.	.	.	.
.	.	.	.	2g
=43	=43	=43	=43	=43
1F]	0f	0r	1c	1a
1A	.	.	1c	1a
=44	=44	=44	=44	=44
1G	1g	0r	0d	1.b-
2.B-	2G	.	.	.
.	2B-	.	.	2g
4A	.	.	.	.
=45	=45	=45	=45	=45
2F	2.A	0r	0c	1a
4E	.	.	.	.
4D	4G	.	.	.
2.C	2.E	.	.	[1g
4D	4F	.	.	.
=46	=46	=46	=46	=46
2E	2G	1c	0r	2g]
2.F	2.A	.	.	2f
.	.	1A	.	[1f
4E	4G	.	.	.
4D	4F	.	.	.
4C	4E	.	.	.
=47	=47	=47	=47	=47
1D	1F	1B	0r	1f]
1C	1G	1c	.	1e
=48	=48	=48	=48	=48
1r	0F	0c	0r	0f
[1F	.	.	.	.
=49	=49	=49	=49	=49
1F]	1r	0r	1c	0r
1E	1G	.	1c	.
=50	=50	=50	=50	=50
1D	1.A	0r	0d	1r
[1F	.	.	.	1a
.	2G	.	.	.
=51	=51	=51	=51	=51
2F]	1F	0r	0c	1.cc
4E	.	.	.	.
4D	.	.	.	.
1C	1E	.	.	.
.	.	.	.	2b-
=52	=52	=52	=52	=52
1D	1F	0r	0r	1a
[1E	[1G	.	.	[1g
=53	=53	=53	=53	=53
2E]	2G]	1c	0r	2g]
1F	1A	.	.	2f
.	.	1A	.	[1f
2E	2G	.	.	.
=54	=54	=54	=54	=54
1D	1F	1B	0r	1f]
1C	1G	1c	.	1e
=55	=55	=55	=55	=55
0Fl	0Fl	0cl	0cl	0fl
==	==	==	==	==
*-	*-	*-	*-	*-
!!!RDF**kern: l=long note in original notation
!!!RDF**kern: i=editorial accidental
!!!ENC:	Chris Gage 10-03-2013
!!!END:	2013/10/24/
!!!EED:	Jesse Rodin
!!!EEV:	2013/12/19/
!!!ONB:	Translated from MusicXML and edited on 2013/12/19/ by Craig Sapp
!!muse2ps: C^@{COM}^i2I150v85,85,85,85,100Q8c130
